.github/next.svg

<?xml version="1.0" encoding="UTF-8" standalone="no"?>
<svg
   data-v-0dd9719b=""
   version="1.0"
   width="300"
   height="128.588"
   viewBox="0 0 300 128.588"
   preserveAspectRatio="xMidYMid"
   color-interpolation-filters="sRGB"
   id="svg16"
   xmlns="http://www.w3.org/2000/svg"
   xmlns:svg="http://www.w3.org/2000/svg">
  <g
     data-v-0dd9719b=""
     fill="#333333"
     class="iconlinesvg-g iconlinesvg"
     id="g16"
     transform="matrix(1.6325223,0,0,1.6325223,17.050346,17.372051)">
    <g
       class="tp-name"
       id="g15"
       transform="translate(-2.4818143)">
      <g
         id="g8">
        <g
           id="g7">
          <g
             class="imagesvg"
             id="g6">
            <g
               id="g5">
              <rect
                 fill="#333333"
                 fill-opacity="0"
                 stroke-width="2"
                 x="0"
                 y="0"
                 width="47.470798"
                 height="55.848"
                 class="image-rect"
                 id="rect2" />
              <svg
                 x="0"
                 y="0"
                 version="1.1"
                 id="svg5"
                 height="55.848"
                 width="47.470798"
                 filtersec="colorsb630366517"
                 class="image-svg-svg primary"
                 style="overflow:visible">
                <svg
                   viewBox="0.0045030384 0.0038194316 85 100"
                   version="1.1"
                   id="svg4"
                   width="100%"
                   height="100%">
                  <path
                     d="m 85,90 a 10,10 0 0 0 -2.24,-6.3 l -65,-80 A 10,10 0 0 0 10,0 10,10 0 0 0 0,10 10,10 0 0 0 2.24,16.31 l 65,80 A 10,10 0 0 0 75,100 10,10 0 0 0 85,90 Z"
                     fill="#df5bd3"
                     id="path2" />
                  <path
                     d="M 85,42.43 V 10 A 10,10 0 0 0 75,0 10,10 0 0 0 65,10 v 32.43 a 10,10 0 0 0 2.24,6.3 10,10 0 0 0 17.76,-6.3 z"
                     fill="#7e5bf6"
                     id="path3" />
                  <path
                     d="M 0,57.57 V 90 A 10,10 0 0 0 10,100 10,10 0 0 0 20,90 V 57.57 A 10,10 0 0 0 17.76,51.27 10,10 0 0 0 0,57.57 Z"
                     fill="#df5bd3"
                     id="path4" />
                </svg>
              </svg>
            </g>
          </g>
        </g>
      </g>
      <g
         transform="translate(51,4.589)"
         id="g10">
        <g
           data-gra="path-name"
           fill="#333333"
           id="g9">
          <path
             d="m 29.38,-8.71 q 1.1,0 1.79,0.84 0.68,0.85 0.68,2.28 v 0 q 0,2.01 -2.4,3.38 v 0 q -2.22,1.23 -5.01,1.98 -2.8,0.75 -5.33,0.75 v 0 Q 11.44,0.52 6.96,-3.9 2.47,-8.32 2.47,-15.99 v 0 q 0,-4.88 1.95,-8.65 1.95,-3.77 5.49,-5.84 3.55,-2.08 8.03,-2.08 v 0 q 4.29,0 7.47,1.88 3.19,1.88 4.95,5.33 1.75,3.44 1.75,8.12 v 0 q 0,2.8 -2.47,2.8 v 0 H 10.46 q 0.4,4.48 2.54,6.6 2.15,2.11 6.24,2.11 v 0 q 2.08,0 3.67,-0.52 1.6,-0.52 3.61,-1.43 v 0 q 1.95,-1.04 2.86,-1.04 z M 18.14,-26.85 q -3.32,0 -5.3,2.08 -1.98,2.08 -2.38,5.98 v 0 h 14.7 q -0.13,-3.96 -1.95,-6.01 -1.82,-2.05 -5.07,-2.05 z"
             transform="translate(-2.47,46.15)"
             id="path8" />
        </g>
      </g>
      <g
         transform="translate(84,4.589)"
         id="g12">
        <g
           data-gra="path-name"
           fill="#333333"
           id="g11">
          <path
             d="m 40.56,-5.98 q 1.04,1.23 1.04,2.47 v 0 q 0,1.56 -1.2,2.73 -1.2,1.17 -2.77,1.17 v 0 q -1.62,0 -2.86,-1.43 v 0 L 21.58,-17.42 8.32,-1.04 Q 7.15,0.33 5.53,0.33 v 0 q -1.56,0 -2.77,-1.14 -1.2,-1.14 -1.2,-2.7 v 0 q 0,-1.3 0.98,-2.47 v 0 L 16.71,-23.27 3.12,-39.84 q -0.97,-1.04 -0.97,-2.48 v 0 q 0,-1.56 1.16,-2.69 1.18,-1.14 2.73,-1.14 v 0 q 1.63,0 2.87,1.43 v 0 l 12.67,15.67 12.68,-15.67 q 1.17,-1.43 2.79,-1.43 v 0 q 1.56,0 2.76,1.14 1.21,1.13 1.21,2.69 v 0 q 0,1.44 -0.98,2.48 v 0 l -13.58,16.57 z"
             transform="translate(-1.56,46.15)"
             id="path10" />
        </g>
      </g>
      <g
         transform="translate(128,4.589)"
         id="g14">
        <g
           data-gra="path-name"
           fill="#333333"
           id="g13">
          <path
             d="m 19.96,0.33 q -1.96,0 -3.09,-1.14 -1.14,-1.14 -1.14,-3.02 v 0 -35.11 H 3.9 q -3.9,0 -3.9,-3.44 v 0 q 0,-3.45 3.9,-3.45 v 0 h 32.05 q 3.89,0 3.89,3.45 v 0 q 0,3.44 -3.89,3.44 v 0 H 24.12 v 35.11 q 0,1.88 -1.14,3.02 -1.14,1.14 -3.02,1.14 z"
             transform="translate(0,46.15)"
             id="path12" />
        </g>
      </g>
    </g>
  </g>
  <defs
     v-gra="od"
     id="defs16" />
</svg>

<svg data-v-0dd9719b="" version="1.0" xmlns="http://www.w3.org/2000/svg" xmlns:xlink="http://www.w3.org/1999/xlink" width="100%" height="100%" viewBox="0 0 340.000000 250.000000" preserveAspectRatio="xMidYMid meet" color-interpolation-filters="sRGB" style="margin: auto;"> <rect data-v-0dd9719b="" x="0" y="0" width="100%" height="100%" fill="#feffff" fill-opacity="1" class="background"></rect> <g data-v-0dd9719b="" fill="#333" class="iconlinesvg-g iconlinesvg" transform="translate(86.0865666261287,97.07877198962127)"><g class="tp-name"><g transform="translate(0, 0)"><g><g class="imagesvg"><g><rect fill="#333" fill-opacity="0" stroke-width="2" x="0" y="0" width="47.4708" height="55.848" class="image-rect"></rect> <svg x="0" y="0" width="47.4708" height="55.848" filtersec="colorsb630366517" class="image-svg-svg primary" style="overflow: visible;"><svg xmlns="http://www.w3.org/2000/svg" viewBox="0.0045030384185898754 0.0038194315815266566 85 100"><path d="M85 90a10 10 0 0 0-2.24-6.3l-65-80A10 10 0 0 0 10 0 10 10 0 0 0 0 10a10 10 0 0 0 2.24 6.31l65 80A10 10 0 0 0 75 100a10 10 0 0 0 10-10z" fill="#df5bd3"></path><path d="M85 42.43V10A10 10 0 0 0 75 0a10 10 0 0 0-10 10v32.43a10 10 0 0 0 2.24 6.3A10 10 0 0 0 85 42.43z" fill="#7e5bf6"></path><path d="M0 57.57V90a10 10 0 0 0 10 10 10 10 0 0 0 10-10V57.57a10 10 0 0 0-2.24-6.3A10 10 0 0 0 0 57.57z" fill="#df5bd3"></path></svg></svg> <!----></g></g></g></g><g transform="translate(51, 4.588999999999999)"><g data-gra="path-name" fill="#333" transform="scale(1)"><path d="M29.38-8.71Q30.48-8.71 31.17-7.87Q31.85-7.02 31.85-5.59L31.85-5.59Q31.85-3.58 29.45-2.21L29.45-2.21Q27.23-0.98 24.44-0.23Q21.64 0.52 19.11 0.52L19.11 0.52Q11.44 0.52 6.96-3.90Q2.47-8.32 2.47-15.99L2.47-15.99Q2.47-20.87 4.42-24.64Q6.37-28.41 9.91-30.48Q13.46-32.56 17.94-32.56L17.94-32.56Q22.23-32.56 25.41-30.68Q28.60-28.80 30.36-25.35Q32.11-21.91 32.11-17.23L32.11-17.23Q32.11-14.43 29.64-14.43L29.64-14.43L10.46-14.43Q10.86-9.95 13-7.83Q15.15-5.72 19.24-5.72L19.24-5.72Q21.32-5.72 22.91-6.24Q24.51-6.76 26.52-7.67L26.52-7.67Q28.47-8.71 29.38-8.71L29.38-8.71ZM18.14-26.85Q14.82-26.85 12.84-24.77Q10.86-22.69 10.46-18.79L10.46-18.79L25.16-18.79Q25.03-22.75 23.21-24.80Q21.39-26.85 18.14-26.85L18.14-26.85Z" transform="translate(-2.47, 46.15)"></path></g></g><g transform="translate(84, 4.588999999999999)"><g data-gra="path-name" fill="#333" transform="scale(1)"><path d="M40.56-5.98Q41.60-4.75 41.60-3.51L41.60-3.51Q41.60-1.95 40.40-0.78Q39.20 0.39 37.63 0.39L37.63 0.39Q36.01 0.39 34.77-1.04L34.77-1.04L21.58-17.42L8.32-1.04Q7.15 0.33 5.53 0.33L5.53 0.33Q3.97 0.33 2.76-0.81Q1.56-1.95 1.56-3.51L1.56-3.51Q1.56-4.81 2.54-5.98L2.54-5.98L16.71-23.27L3.12-39.84Q2.15-40.88 2.15-42.32L2.15-42.32Q2.15-43.88 3.31-45.01Q4.49-46.15 6.04-46.15L6.04-46.15Q7.67-46.15 8.91-44.72L8.91-44.72L21.58-29.05L34.26-44.72Q35.43-46.15 37.05-46.15L37.05-46.15Q38.61-46.15 39.81-45.01Q41.02-43.88 41.02-42.32L41.02-42.32Q41.02-40.88 40.04-39.84L40.04-39.84L26.46-23.27L40.56-5.98Z" transform="translate(-1.56, 46.15)"></path></g></g><g transform="translate(128, 4.588999999999999)"><g data-gra="path-name" fill="#333" transform="scale(1)"><path d="M19.96 0.33Q18.00 0.33 16.87-0.81Q15.73-1.95 15.73-3.83L15.73-3.83L15.73-38.94L3.90-38.94Q0-38.94 0-42.38L0-42.38Q0-45.83 3.90-45.83L3.90-45.83L35.95-45.83Q39.84-45.83 39.84-42.38L39.84-42.38Q39.84-38.94 35.95-38.94L35.95-38.94L24.12-38.94L24.12-3.83Q24.12-1.95 22.98-0.81Q21.84 0.33 19.96 0.33L19.96 0.33Z" transform="translate(0, 46.15)"></path></g></g></g> <!----></g><defs v-gra="od"></defs></svg>
